public/avatar/body/220.svg

<svg xmlns:xlink="http://www.w3.org/1999/xlink" height="82" width="84.85" xmlns="http://www.w3.org/2000/svg"><g transform="translate(37.4 42.25)"><use height="38" transform="translate(-11.95 -17.45)" width="32.05" xlink:href="#a"/><use height="38.95" transform="translate(-12.45 -17.95)" width="33.05" xlink:href="#b"/><use height="24.95" transform="translate(-15.4 .35)" width="39.8" xlink:href="#c"/></g><defs><path d="M27.35 7.4q2.15 4.15 3.55 8.75 1.45 4.7 1.15 9.5-.35 4.95-4.2 8.1-3.8 3.2-8.75 4.05l-2.6.2q-3.6 0-7.05-1.15-4.65-1.6-7.1-5.5Q-.2 27.4.05 23q.2-4.4 2-9.3Q3.85 8.75 7 5.05 10.1 1.3 14.7.1l1.8-.1q1.9.05 3.7.8 4.75 2.05 7.15 6.6" fill="#cd5e5e" fill-rule="evenodd" transform="translate(-.05)" id="d"/><path d="M27.35 7.4Q24.95 2.85 20.2.8 17.55-.3 14.7.1 10.1 1.3 7 5.05q-3.15 3.7-4.95 8.65-1.8 4.9-2 9.3-.25 4.4 2.3 8.35 2.45 3.9 7.1 5.5 4.65 1.55 9.65.95 4.95-.85 8.75-4.05 3.85-3.15 4.2-8.1.3-4.8-1.15-9.5-1.4-4.6-3.55-8.75Z" fill="none" stroke="#000" stroke-linecap="round" stroke-linejoin="round" transform="translate(.45 .5)" id="e"/><use height="38" width="32.05" xlink:href="#d" id="a"/><use height="38.95" width="33.05" xlink:href="#e" id="b"/><g id="c" fill-rule="evenodd"><path d="M21.85 20.25q.3.25.15.55-.1.35-.45.35l-1.65-.05.4.6.05.25-.05.25q-.2.15-.45.25l-2.45-.2.3.95-.15.35-.55.1-1.5-.55-.1 1.25-.3.45-.5-.1-1.6-1.25-.25.95-.35.35q-.3.1-.45-.15l-1.05-.9-.65 1.35-.4.25q-.3 0-.45-.2l-1-1.55-1 .9-.55.1q-.3-.1-.3-.4l-.15-1.6-1.75.55-.55-.15-.1-.3.05-.25 1.05-1.9-2.25.05L3.3 23v.1l-.2.35-.5.1L1 22.9l-.15 1.45-.35.4-.5-.1-1.75-1.55-.55 1.15-.4.3-.45-.2-1-1.2-1.2.95-.55.05-.25-.4v-.65l-.75.6-.5.05-.3-.4-.1-1.2q-1.7.7-2.35.75l-.45-.2-.1-.25.05-.25.45-1.4-2.65.05-.35-.35.15-.5q3.05-2.75 3.15-6.15.1-.5.55-.5.25 0 .35.25 21.65 3.6 26.4.1l.5-.05.3.45q.1 3 3.65 6.15" fill="#414244" transform="translate(15.4 -.35)"/><path d="m.15 21.75-.1 1.85-2.1-1.85-.75 1.8-1.2-1.5-1.15 1.05-.05-1.7-1.7 1.4-.05-2q-1.85 1.2-2.5 1.25l.25-2.1q-1.45.65-2.45.3Q-9.3 17.3-9 15.4q21.2 2.95 26.3.15.55 2.6 3.25 4.95l-2.1-.1.85 1.4-3-.25.55 1.35-2.25-.85.15 1.9-2.3-1.85-.3 1.8-1.5-1.35-.85 1.8-1.15-2.2-1.35 1.4-.2-2.1-1.75.75 1.2-2.45q-1.25.4-4.9.05l.6 2.75-2.1-.8" fill="#fff" transform="translate(15.4 -.35)"/><path d="m.15 21.75-.1 1.85-2.1-1.85-.75 1.8-1.2-1.5-1.15 1.05-.05-1.7-.8.65Q-4.5 18.7.1 18.7l8.25-.35q0 1.95-1.2 3.3l-.05-.2-1.75.75 1.2-2.45q-1.25.4-4.9.05l.6 2.75-2.1-.8m18.3-1.35.85 1.4-3-.25.55 1.35-2.25-.85.15 1.9-1.25-1q-.1-3.45-1.7-6.2 4-.35 5.5-1.2.55 2.6 3.25 4.95l-2.1-.1" fill="#b4c7cc" transform="translate(15.4 -.35)"/><path d="m18.6 14.3-.15 1.5Q16.3 17.9 6.7 18.4q-10.8.55-16.75-2.95l-.15-1.5q8.35 3.6 28.8.35" transform="translate(15.4 -.35)"/><path d="M2.1 15.95q.95 2 .65 2.05-1.7 3.15-2.25 2.95-.85-.25-2-1.55-.25-.25 1.5-1.85l2.1-1.6m3.6.35q.45 0 4.25 2.85-1 1.5-1.7 1.85-.5.25-2.75-2.55-.35 0 .2-2.15" transform="translate(15.4 -.35)"/><path d="m6.75 15.25.05.45q-.2.15-.45.25-7.9.9-13.7-.85-4.3-1.3-4.9-2.7-.35-.85-.45-5.25-.1-5 .9-5.5l.45-.05q3.15.75 9.05 5.2 5.85 4.4 9.05 8.45" fill="#414244" transform="translate(15.4 -.35)"/><path d="M-11.2 12.1q-.35-.9-.5-4.85-.2-4.25.45-4.6 3 1 8.05 4.7 5.45 4 8.45 7.8-11.15.75-16.45-3.05" fill="#fff" transform="translate(15.4 -.35)"/><path d="M1.35 11.05q2.55 2.3 3.9 4.1-11.15.75-16.45-3.05l-.1-1.5q.6 0 2.65.7l2.65-.05-.75 1.5q-.15.45 1.1 1 6.95 2.4 7-2.7" fill="#b4c7cc" transform="translate(15.4 -.35)"/><path d="M7.9 15.3v.35q-.25.8-1.55.95-2.45.4-3.65-.8Q0 11.85-5.75 7.75q-4.75-3.35-7.15-4.1l-.35-.35q-.25-1.65 1.3-2.85l.45-.1q2.9.2 9.5 5 7.15 5.2 9.9 9.95" fill="#414244" transform="translate(15.4 -.35)"/><path d="M6.8 15.5q-1.45.8-3.15-.25-2.7-3.95-8.55-8.1-4.9-3.45-7.2-4.1-.15-1.05.8-1.75 2.7.2 8.75 4.6 6.65 4.85 9.35 9.6" fill="#fff" transform="translate(15.4 -.35)"/><path d="M6.8 15.5q-1.45.8-3.15-.25L-2 9.35l3.75 2.6q.2-2.2-6.3-7.4Q3.7 9.95 6.8 15.5" fill="#b4c7cc" transform="translate(15.4 -.35)"/><path d="m20.1 2.05.45.05q1.55.85.1 10.75-.65 1.4-5 2.6l-13.7.45-.45-.3q-.1-.25.05-.4Q4.9 11.25 10.9 7q6-4.25 9.2-4.95" fill="#414244" transform="translate(15.4 -.35)"/><path d="M3.05 15.1q3.1-3.7 8.7-7.55 5.2-3.6 8.2-4.45.65.35.3 4.65l-.65 4.8q-5.95 3.6-16.55 2.55" fill="#fff" transform="translate(15.4 -.35)"/><path d="M14.15 11.7q0-1.3-1.1-1.1l1.75-1.9q.3.55-.1 3.15-.2 1.4 1.9.35.45-2.05-.35-3.8-.75-1.55-2.05-2.05l5.75-3.25q.65.35.3 4.65l-.65 4.8q-5.95 3.6-16.55 2.55l2.1-2.2q1 1.2 3.4 1.4l3.8-.55q1.8-.7 1.8-2.05" fill="#b4c7cc" transform="translate(15.4 -.35)"/><path d="m21.6 3.7-.4.35q-2.4.7-7.25 3.9Q8 11.9 5.2 15.75q-1.2 1.2-3.65.7-1.2-.15-1.55-1l.05-.3q2.9-4.75 10.2-9.7Q17 .85 19.95.7l.4.15q1.55 1.2 1.25 2.85" fill="#414244" transform="translate(15.4 -.35)"/><path d="M1.15 15.35Q4 10.7 10.8 6q6.2-4.2 8.9-4.35.9.8.75 1.75-2.45.7-7.35 3.95-6 4-8.8 7.85l-3.15.15" fill="#fff" transform="translate(15.4 -.35)"/><path d="M19.7 1.65q.9.8.75 1.75-2.45.7-7.35 3.95-6 4-8.8 7.85l-1.45.35q2.2-3.45 6.6-6.65l7.9-5.3q-2.8.3-6.55 2.4 6.15-4.15 8.9-4.35" fill="#b4c7cc" transform="translate(15.4 -.35)"/><path d="m-9.1 7.9.15-.25-.55-.6.4.85m-.95-3.5H-8l-.85 1.9 1.15 1.3-.6.9L-7 9.95l-2 1.5-.2-.75q-.85-4.1-2.45-4.5-.6-.15-1.35.85l-.3.35-2.1-1.55 1.45-.95-1.1-1.55 2.9.2.7-1.8 1.4 2.65" fill="#414244" transform="translate(15.4 -.35)"/><path d="M-10.1 7.35q-1.2-2.85-2.95-.75l-1.1-.75 1.25-.75-.85-1.05 2.05.45.35-1.3.75 1.9H-9l-.45 1.3 1.15 1.2-.65.95 1.25 1.3-1.55.8q-.25-1.85-.85-3.3" fill="#fff" transform="translate(15.4 -.35)"/><path d="m24.05 3.3-1.1 1.55 1.45.95-2.1 1.55-.35-.35q-.75-.95-1.35-.85-1.5.3-2.45 4.5l-.15.75-2.05-1.55 1.35-1.4-.6-.95 1.15-1.25-.85-1.9h2.05l1.4-2.65.7 1.8 2.9-.2" fill="#414244" transform="translate(15.4 -.35)"/><path d="m21.9 5.05 1.25.75-1.1.75q-1.75-2.1-2.95.75-.6 1.45-.85 3.3l-1.55-.8 1.25-1.3-.65-.95 1.15-1.2-.45-1.3h1.6l.75-1.9.35 1.25 2.05-.45-.85 1.1" fill="#b4c7cc" transform="translate(15.4 -.35)"/></g></defs></svg>

<?xml version="1.0" encoding="UTF-8" standalone="no"?>
<svg xmlns:xlink="http://www.w3.org/1999/xlink" height="82.0px" width="84.85px" xmlns="http://www.w3.org/2000/svg">
  <g transform="matrix(1.0, 0.0, 0.0, 1.0, 37.4, 42.25)">
    <use height="38.0" transform="matrix(1.0, 0.0, 0.0, 1.0, -11.95, -17.45)" width="32.05" xlink:href="#sprite0"/>
    <use height="38.95" transform="matrix(1.0, 0.0, 0.0, 1.0, -12.45, -17.95)" width="33.05" xlink:href="#sprite1"/>
    <use height="24.95" transform="matrix(1.0, 0.0, 0.0, 1.0, -15.4, 0.35)" width="39.8" xlink:href="#shape2"/>
  </g>
  <defs>
    <g id="sprite0" transform="matrix(1.0, 0.0, 0.0, 1.0, -0.05, 0.0)">
      <use height="38.0" transform="matrix(1.0, 0.0, 0.0, 1.0, 0.05, 0.0)" width="32.05" xlink:href="#shape0"/>
    </g>
    <g id="shape0" transform="matrix(1.0, 0.0, 0.0, 1.0, -0.05, 0.0)">
      <path d="M27.35 7.4 Q29.5 11.55 30.9 16.15 32.35 20.85 32.05 25.65 31.7 30.6 27.85 33.75 24.05 36.95 19.1 37.8 L16.5 38.0 Q12.9 38.0 9.45 36.85 4.8 35.25 2.35 31.35 -0.2 27.4 0.05 23.0 0.25 18.6 2.05 13.7 3.85 8.75 7.0 5.05 10.1 1.3 14.7 0.1 L16.5 0.0 Q18.4 0.05 20.2 0.8 24.95 2.85 27.35 7.4" fill="#cd5e5e" fill-rule="evenodd" stroke="none"/>
    </g>
    <g id="sprite1" transform="matrix(1.0, 0.0, 0.0, 1.0, 0.45, 0.5)">
      <use height="38.95" transform="matrix(1.0, 0.0, 0.0, 1.0, -0.45, -0.5)" width="33.05" xlink:href="#shape1"/>
    </g>
    <g id="shape1" transform="matrix(1.0, 0.0, 0.0, 1.0, 0.45, 0.5)">
      <path d="M27.35 7.4 Q24.95 2.85 20.2 0.8 17.55 -0.3 14.7 0.1 10.1 1.3 7.0 5.05 3.85 8.75 2.05 13.7 0.25 18.6 0.05 23.0 -0.2 27.4 2.35 31.35 4.8 35.25 9.45 36.85 14.1 38.4 19.1 37.8 24.05 36.95 27.85 33.75 31.7 30.6 32.05 25.65 32.35 20.85 30.9 16.15 29.5 11.55 27.35 7.4 Z" fill="none" stroke="#000000" stroke-linecap="round" stroke-linejoin="round" stroke-width="1.0"/>
    </g>
    <g id="shape2" transform="matrix(1.0, 0.0, 0.0, 1.0, 15.4, -0.35)">
      <path d="M21.85 20.25 Q22.15 20.5 22.0 20.8 21.9 21.15 21.55 21.15 L19.9 21.1 20.3 21.7 20.35 21.95 20.3 22.2 Q20.1 22.35 19.85 22.45 L17.4 22.25 17.7 23.2 17.55 23.55 17.0 23.65 15.5 23.1 15.4 24.35 15.1 24.8 14.6 24.7 13.0 23.45 12.75 24.4 12.4 24.75 Q12.1 24.85 11.95 24.6 L10.9 23.7 10.25 25.05 9.85 25.3 Q9.55 25.3 9.4 25.1 L8.4 23.55 7.4 24.45 6.85 24.55 Q6.55 24.45 6.55 24.15 L6.4 22.55 4.65 23.1 4.1 22.95 4.0 22.65 4.05 22.4 5.1 20.5 2.85 20.55 3.3 23.0 3.3 23.1 3.1 23.45 2.6 23.55 1.0 22.9 0.85 24.35 0.5 24.75 0.0 24.65 -1.75 23.1 -2.3 24.25 -2.7 24.55 -3.15 24.35 -4.15 23.15 -5.35 24.1 -5.9 24.15 -6.15 23.75 -6.15 23.1 -6.9 23.7 -7.4 23.75 -7.7 23.35 -7.8 22.15 Q-9.5 22.85 -10.15 22.9 L-10.6 22.7 -10.7 22.45 -10.65 22.2 -10.2 20.8 -12.85 20.85 -13.2 20.5 -13.05 20.0 Q-10.0 17.25 -9.9 13.85 -9.8 13.35 -9.35 13.35 -9.1 13.35 -9.0 13.6 12.65 17.2 17.4 13.7 L17.9 13.65 18.2 14.1 Q18.3 17.1 21.85 20.25" fill="#414244" fill-rule="evenodd" stroke="none"/>
      <path d="M0.15 21.75 L0.05 23.6 -2.05 21.75 -2.8 23.55 -4.0 22.05 -5.15 23.1 -5.2 21.4 -6.9 22.8 -6.95 20.8 Q-8.8 22.0 -9.45 22.05 L-9.2 19.95 Q-10.65 20.6 -11.65 20.25 -9.3 17.3 -9.0 15.4 12.2 18.35 17.3 15.55 17.85 18.15 20.55 20.5 L18.45 20.4 19.3 21.8 16.3 21.55 16.85 22.9 14.6 22.05 14.75 23.95 12.45 22.1 12.15 23.9 10.65 22.55 9.8 24.35 8.65 22.15 7.3 23.55 7.1 21.45 5.35 22.2 6.55 19.75 Q5.3 20.15 1.65 19.8 L2.25 22.55 0.15 21.75" fill="#ffffff" fill-rule="evenodd" stroke="none"/>
      <path d="M0.15 21.75 L0.05 23.6 -2.05 21.75 -2.8 23.55 -4.0 22.05 -5.15 23.1 -5.2 21.4 -6.0 22.05 Q-4.5 18.7 0.1 18.7 L8.35 18.35 Q8.35 20.3 7.15 21.65 L7.1 21.45 5.35 22.2 6.55 19.75 Q5.3 20.15 1.65 19.8 L2.25 22.55 0.15 21.75" fill="#b4c7cc" fill-rule="evenodd" stroke="none"/>
      <path d="M18.45 20.4 L19.3 21.8 16.3 21.55 16.85 22.9 14.6 22.05 14.75 23.95 13.5 22.95 Q13.4 19.5 11.8 16.75 15.8 16.4 17.3 15.55 17.85 18.15 20.55 20.5 L18.45 20.4" fill="#b4c7cc" fill-rule="evenodd" stroke="none"/>
      <path d="M18.6 14.3 L18.45 15.8 Q16.3 17.9 6.7 18.4 -4.1 18.95 -10.05 15.45 L-10.2 13.95 Q-1.85 17.55 18.6 14.3" fill="#000000" fill-rule="evenodd" stroke="none"/>
      <path d="M2.1 15.95 Q3.05 17.95 2.75 18.0 1.05 21.15 0.5 20.95 -0.35 20.7 -1.5 19.4 -1.75 19.15 0.0 17.55 L2.1 15.95" fill="#000000" fill-rule="evenodd" stroke="none"/>
      <path d="M5.7 16.3 Q6.15 16.3 9.95 19.15 8.95 20.65 8.25 21.0 7.75 21.25 5.5 18.45 5.15 18.45 5.7 16.3" fill="#000000" fill-rule="evenodd" stroke="none"/>
      <path d="M6.75 15.25 L6.8 15.7 Q6.6 15.85 6.35 15.95 -1.55 16.85 -7.35 15.1 -11.65 13.8 -12.25 12.4 -12.6 11.55 -12.7 7.15 -12.8 2.15 -11.8 1.65 L-11.35 1.6 Q-8.2 2.35 -2.3 6.8 3.55 11.2 6.75 15.25" fill="#414244" fill-rule="evenodd" stroke="none"/>
      <path d="M-11.2 12.1 Q-11.55 11.2 -11.7 7.25 -11.9 3.0 -11.25 2.65 -8.25 3.65 -3.2 7.35 2.25 11.35 5.25 15.15 -5.9 15.9 -11.2 12.1" fill="#ffffff" fill-rule="evenodd" stroke="none"/>
      <path d="M1.35 11.05 Q3.9 13.35 5.25 15.15 -5.9 15.9 -11.2 12.1 L-11.3 10.6 Q-10.7 10.6 -8.65 11.3 L-6.0 11.25 -6.75 12.75 Q-6.9 13.2 -5.65 13.75 1.3 16.15 1.35 11.05" fill="#b4c7cc" fill-rule="evenodd" stroke="none"/>
      <path d="M7.9 15.3 L7.9 15.65 Q7.65 16.45 6.35 16.6 3.9 17.0 2.7 15.8 0.0 11.85 -5.75 7.75 -10.5 4.4 -12.9 3.65 L-13.25 3.3 Q-13.5 1.65 -11.95 0.45 L-11.5 0.35 Q-8.6 0.55 -2.0 5.35 5.15 10.55 7.9 15.3" fill="#414244" fill-rule="evenodd" stroke="none"/>
      <path d="M6.8 15.5 Q5.35 16.3 3.65 15.25 0.95 11.3 -4.9 7.15 -9.8 3.7 -12.1 3.05 -12.25 2.0 -11.3 1.3 -8.6 1.5 -2.55 5.9 4.1 10.75 6.8 15.5" fill="#ffffff" fill-rule="evenodd" stroke="none"/>
      <path d="M6.8 15.5 Q5.35 16.3 3.65 15.25 L-2.0 9.35 1.75 11.95 Q1.95 9.75 -4.55 4.55 3.7 9.95 6.8 15.5" fill="#b4c7cc" fill-rule="evenodd" stroke="none"/>
      <path d="M20.1 2.05 L20.55 2.1 Q22.1 2.95 20.65 12.85 20.0 14.25 15.65 15.45 L1.95 15.9 1.5 15.6 Q1.4 15.35 1.55 15.2 4.9 11.25 10.9 7.0 16.9 2.75 20.1 2.05" fill="#414244" fill-rule="evenodd" stroke="none"/>
      <path d="M3.05 15.1 Q6.15 11.4 11.75 7.55 16.95 3.95 19.95 3.1 20.6 3.45 20.25 7.75 L19.6 12.55 Q13.65 16.15 3.05 15.1" fill="#ffffff" fill-rule="evenodd" stroke="none"/>
      <path d="M14.15 11.7 Q14.15 10.4 13.05 10.6 L14.8 8.7 Q15.1 9.25 14.7 11.85 14.5 13.25 16.6 12.2 17.05 10.15 16.25 8.4 15.5 6.85 14.2 6.35 L19.95 3.1 Q20.6 3.45 20.25 7.75 L19.6 12.55 Q13.65 16.15 3.05 15.1 L5.15 12.9 Q6.15 14.1 8.55 14.3 L12.35 13.75 Q14.15 13.05 14.15 11.7" fill="#b4c7cc" fill-rule="evenodd" stroke="none"/>
      <path d="M21.6 3.7 L21.2 4.05 Q18.8 4.75 13.95 7.95 8.0 11.9 5.2 15.75 4.0 16.95 1.55 16.45 0.35 16.3 0.0 15.45 L0.05 15.15 Q2.95 10.4 10.25 5.45 17.0 0.85 19.95 0.7 L20.35 0.85 Q21.9 2.05 21.6 3.7" fill="#414244" fill-rule="evenodd" stroke="none"/>
      <path d="M1.15 15.35 Q4.0 10.7 10.8 6.0 17.0 1.8 19.7 1.65 20.6 2.45 20.45 3.4 18.0 4.1 13.1 7.35 7.1 11.35 4.3 15.2 L1.15 15.35" fill="#ffffff" fill-rule="evenodd" stroke="none"/>
      <path d="M19.7 1.65 Q20.6 2.45 20.45 3.4 18.0 4.1 13.1 7.35 7.1 11.35 4.3 15.2 L2.85 15.55 Q5.05 12.1 9.45 8.9 L17.35 3.6 Q14.55 3.9 10.8 6.0 16.95 1.85 19.7 1.65" fill="#b4c7cc" fill-rule="evenodd" stroke="none"/>
      <path d="M-9.1 7.9 L-8.95 7.65 -9.5 7.05 -9.1 7.9 M-10.05 4.4 L-8.0 4.4 -8.85 6.3 -7.7 7.6 -8.3 8.5 -7.0 9.95 -9.0 11.45 -9.2 10.7 Q-10.05 6.6 -11.65 6.2 -12.25 6.05 -13.0 7.05 L-13.3 7.4 -15.4 5.85 -13.95 4.9 -15.05 3.35 -12.15 3.55 -11.45 1.75 -10.05 4.4" fill="#414244" fill-rule="evenodd" stroke="none"/>
      <path d="M-10.1 7.35 Q-11.3 4.5 -13.05 6.6 L-14.15 5.85 -12.9 5.1 -13.75 4.05 -11.7 4.5 -11.35 3.2 -10.6 5.1 -9.0 5.1 -9.45 6.4 -8.3 7.6 -8.95 8.55 -7.7 9.85 -9.25 10.65 Q-9.5 8.8 -10.1 7.35" fill="#ffffff" fill-rule="evenodd" stroke="none"/>
      <path d="M24.05 3.3 L22.95 4.85 24.4 5.8 22.3 7.35 21.95 7.0 Q21.2 6.05 20.6 6.15 19.1 6.45 18.15 10.65 L18.0 11.4 15.95 9.85 17.3 8.45 16.7 7.5 17.85 6.25 17.0 4.35 19.05 4.35 20.45 1.7 21.15 3.5 24.05 3.3" fill="#414244" fill-rule="evenodd" stroke="none"/>
      <path d="M21.9 5.05 L23.15 5.8 22.05 6.55 Q20.3 4.45 19.1 7.3 18.5 8.75 18.25 10.6 L16.7 9.8 17.95 8.5 17.3 7.55 18.45 6.35 18.0 5.05 19.6 5.05 20.35 3.15 20.7 4.4 22.75 3.95 21.9 5.05" fill="#b4c7cc" fill-rule="evenodd" stroke="none"/>
    </g>
  </defs>
</svg>
